X: 1
T: It's Nae Bother
T: 32Jx8 2C
C:Derek Haynes
B:RSCDS Graded 2 #13
T: Walking the Floor
Z:John Chisolm, as played by Bill Lamey "Full Circle"
Z:Arr. Terry Traub 2002-02-20
M:6/8
L:1/8
R:jig
K:Am
|:e| "Am" AAA e2d|"Am" efg "D"edB|"G" GGG d2B|"G" Gge "Em"dBG|\
  "Am"AAA e2d|"Am"efg edB|"G"GGG edB|"Am"BAA A2 :|
|:e| "Am"a3 e2d| "Am"gee edB|"G" g3 d2B|"G"Gge dBG|\
  "Am"a3 e2d|"Am"gee edB|"G"GGG edB|"Am"BAA A2 :|
%%center Book02/02131-Its_Nae_Bother.abc

%%sep 1 1 500
%%sep 1 1 500

